public/sheesh/icons18.svg

<svg fill="none" height="60" viewBox="0 0 61 60" width="61" xmlns="http://www.w3.org/2000/svg" xmlns:xlink="http://www.w3.org/1999/xlink"><linearGradient id="a"><stop offset="0" stop-color="#34c796"/><stop offset="1" stop-color="#0b7a55"/></linearGradient><linearGradient id="b" gradientUnits="userSpaceOnUse" x1="30.5" x2="30.5" xlink:href="#a" y1="0" y2="60"/><linearGradient id="c" gradientUnits="userSpaceOnUse" x1="30.5003" x2="30.5003" xlink:href="#a" y1="16.666" y2="43.334"/><circle cx="30.5" cy="30" fill="#151722" r="29" stroke="url(#b)" stroke-width="2"/><path clip-rule="evenodd" d="m27.5 41.334v-22.0013c0-1.4667.6-2.6667 2.4-2.6667h1.2c1.8 0 2.4 1.2 2.4 2.6667v22.0013h3.667v-7.3333c0-1.4667.5333-2.6667 2.1333-2.6667h1.0667c1.6 0 2.1333 1.2 2.1333 2.6667v7.3333h1.3334c.5466 0 1 .4533 1 1s-.4534 1-1 1h-1.3334-5.3333-20c-.5467 0-1-.4533-1-1s.4533-1 1-1h1.333v-14.0013c0-1.4667.5333-2.6667 2.1333-2.6667h1.0667c1.6 0 2.1333 1.2 2.1333 2.6667v14.0013z" fill="url(#c)" fill-rule="evenodd"/></svg>

<svg width="61" height="60" viewBox="0 0 61 60" fill="none" xmlns="http://www.w3.org/2000/svg">
<circle cx="30.5" cy="30" r="29" fill="#151722" stroke="url(#paint0_linear_415_6441)" stroke-width="2"/>
<path fill-rule="evenodd" clip-rule="evenodd" d="M27.5 41.334V19.3327C27.5 17.866 28.1 16.666 29.9 16.666H31.1C32.9 16.666 33.5 17.866 33.5 19.3327V41.334H37.167V34.0007C37.167 32.534 37.7003 31.334 39.3003 31.334H40.367C41.967 31.334 42.5003 32.534 42.5003 34.0007V41.334H43.8337C44.3803 41.334 44.8337 41.7873 44.8337 42.334C44.8337 42.8807 44.3803 43.334 43.8337 43.334H42.5003H37.167H17.167C16.6203 43.334 16.167 42.8807 16.167 42.334C16.167 41.7873 16.6203 41.334 17.167 41.334H18.5V27.3327C18.5 25.866 19.0333 24.666 20.6333 24.666H21.7C23.3 24.666 23.8333 25.866 23.8333 27.3327V41.334H27.5Z" fill="url(#paint1_linear_415_6441)"/>
<defs>
<linearGradient id="paint0_linear_415_6441" x1="30.5" y1="0" x2="30.5" y2="60" gradientUnits="userSpaceOnUse">
<stop stop-color="#34C796"/>
<stop offset="1" stop-color="#0B7A55"/>
</linearGradient>
<linearGradient id="paint1_linear_415_6441" x1="30.5003" y1="16.666" x2="30.5003" y2="43.334" gradientUnits="userSpaceOnUse">
<stop stop-color="#34C796"/>
<stop offset="1" stop-color="#0B7A55"/>
</linearGradient>
</defs>
</svg>
